X:1
T:Title
%%score 1 2 3
L:1/8
M:4/2
K:F
V:1 treble-8 nm="Part_1"
V:2 treble-8 nm="Part_2"
V:3 bass nm="Part_3"
V:1
 z16 | z16 | f6 d2 f2 ef dcBc | dcde f6 c2 c3 d | e2 f4 e2 f4 c4- | c4 _e4 d8 | c4 f6 d2 f4- | %7
 f2 ed e4 f8 | z16 | z16 | z4 z f_ed c3 c c2 ee | d4 d4 c2 f4 e2 | dcde fefd e2 f4 e2 | f8 z8 | %14
 z8 z4 d4 | cdef d3 c d2 g2 e4 | d8 z8 | z8 z4 d4 | cdef d3 f d2 g2 e4 | d4 f4 d3 ^f g2 e2 | %20
 fd g4 ^f2 g2 G2 Bcde | f4 f4 fefd edef | g2 f4 e2 f8 | z4 c4 _e8 | d8 z8 | z2 c3 c d2 _e4 e4 | %26
 d4 f4 _e2 d2 c4 | B4 de f2 ef g3 d2 d | c4 z4 z8 | z2 d2 BABc d4 z2 a2 | fefg a6 e4 e2 | d8 z8 | %32
 z2 f4 c2 c4 c4 | B4 de f2 ef g3 d2 d | c4 z4 z8 | z2 c4 d2 e4 e4 | f8 z8 | z4 z2 f2 edec dcdB | %38
 c2 c2 B2 d2 cBcA BABG | AGAF G2 G2 F4 z4 | z2 f2 edec dcdB cBcA | Bcdc BcdB cBAB cBAG | %42
 FGAF f6 ed e4 | f16 |] %44
V:2
 c6 A2 c2 Bc AGFG | AGAB c6 G2 G4 | F8 z8 | z8 z8 | z8 z4 A4- | A2 c2 c6 =BA B4 | c4 A8 c4 | %7
 G8 A4 z cBA | G3 G G2 BB A4 A4 | G2 c4 G2 G4 G4 | F8 z8 | z8 z2 A4 c2 | BABc dcBA G2 A2 G3 G | %13
 F4 c6 A2 cBcA | B2 d4 ^c2 d8 | z16 | z4 A4 FGAB G3 F | G2 c2 A4 G4 B4 | ABcd B3 c B2 d2 ^c4 | %19
 d2 B2 ABcd B3 A B2 c2 | ABcd A4 G4 G4 | FGAB c2 A2 dcdB c4- | c2 d2 AG/G/ G2 F8 | z16 | z4 A4 B8 | %25
 A2 A3 A B2 c4 c4 | B4 d4 G2 B2 A4 | B8 z8 | z2 c2 BABc d2 A4 A2 | G4 z2 d2 BABc d4 | %30
 z2 A4 d3 c =B2 ^c2 c2 | d4 GA B2 AB c3 G2 G | F4 z4 z8 | z16 | z2 c4 G2 G4 G4 | F2 A4 =B2 c4 c4 | %36
 A4 z2 c2 BABG AGAF | G2 G2 F4 z8 | z4 z2 B2 AGAF GFG_E | FEFD E2 E2 F2 c2 BABG | %40
 AGAF GFGE FEFD EDEC | DEFE DEFG AGFG AGAB | c8- c2 (GG G G2) G | F16 |] %44
V:3
 F,12 F,4 | D,4 A,,4 C,8 | F,,4 B,,4 F,,4 B,,4- | B,,4 B,,4 F,6 E,D, | C,2 B,,2 C,4 F,,4 (F,4- | %5
 F,4) C,4 G,8 | C,4 D,8 A,,4 | C,8 F,,8 | C,4 G,,4 D,4 D,4 | G,,2 A,,2 =B,,4 C,4 C,4 | %10
 F,,8 F,4 C,4 | G,4 G,4 C,2 D,4 A,,2 | B,,8 C,8 | F,,4 F,4 E,2 F,2 A,,4 | G,,2 ^F,,2 A,,4 D,4 D,4 | %15
 A,,4 B,,3 A,, B,,2 G,,2 A,,4 | D,4 D,4 D,4 _E,3 D, | _E,2 C,2 D,4 G,,4 G,,4 | %18
 A,,4 B,,3 A,, B,,2 G,,2 A,,4 | B,,4 F,,4 G,,3 D, G,,2 A,,2 | D,8 G,,4 G,4 | D,4 A,,4 B,,4 A,,4 | %22
 =B,,4 C,4 F,,8 | F,8 C,8 | G,4 D,4 G,,8 | D,2 F,4 D,2 C,4 C,4 | G,4 D,4 _E,2 B,,2 F,4 | %27
 B,,4 B,,4 C,2 E,2 ^F,2 G,2 | C,4 G,4 =B,,2 ^C,2 D,4 | G,,4 G,4 G,4 D,4 | D,4 ^F,4 ^G,4 A,4 | %31
 D,4 G,4 F,2 A,,2 =B,,2 C,2 | F,,4 F,2 E,2 F,4 F,4 | B,,4 B,,4 C,2 E,2 ^F,2 G,2 | %34
 C,4 A,,2 =B,,2 C,4 C,4 | F,,2 F,4 D,2 C,4 C,4 | F,4 F,4 G,4 F,2 D,2 | C,4 F,,4 C,4 B,,2 G,,2 | %38
 F,,4 B,,4 F,4 _E,4 | D,4 C,4 F,,4 G,,4 | F,,4 C,4 B,,4 A,,3 C, | B,,8 F,,8 | A,,4 A,,4 C,8 | %43
 F,,16 |] %44

